X:14
T:Voice Of Her I Love. CAM2.[14], The
B:Anon MS#2, early 19thC, Northumbria, Cocks Coll.
Z:Village Music Project 2016 Steve Mansfield
M:2/4
L:1/8
Q:2/4=30
N:* c2 in Mss
N: ** d/>e/d// c/B/A/G/ in Mss
N:** e>dc/ z/e in Mss
K:C
"slow" G | ce/>d/ ce | g>f d z/f/ | e/g/f/e/ d/c/B/A/ | d2{ed} "*"c :|
|: B/c/ | "**" d>e/d// c/B/A/G/ | "**"e>d c z/e | f>f e/d/e/f/ | He2 {dfe} Hd g{ | bg gefd} |
ce/d/ c/e/a/g/ | g>f d z/f/ | e/g/f/d/ d/c/c/A/ | d2 {ed}c :|

